X:1
T:Bog Down in the Valley-O  "Arranged by Ben Holmes"
M:C|
L:1/8
Q:80
C:Traditional
S:Polka
K:HP
|: f2{g}f3/2e/2 | \
{g}dB{G}B2 | \
{g}Ad{G}d3/2e/2 |
{g}fe{A}e2 | \
f2{g}f3/2e/2 | \
{g}dB{G}B2 |
{g}Aa{g}a3/2f/2|1
{g}ed{G}d2 :| | \
|2 {g}ed{G}d|] |:
e | \
{g}fd{gef}ed | \
{g}fd{gef}ed | \
{g}fa{g}a3/2f/2 |
{g}ed{gBd}B{G}A | \
{g}fd{gef}ed | \
{g}fd{gef}ed |
{g}fa{g}a3/2f/2 | \
{g}ed{G}d :|
